static/img/in-field/btn-ancillary-danger.svg

<svg fill="none" height="48" viewBox="0 0 99 48" width="99" xmlns="http://www.w3.org/2000/svg"><rect fill="#da212c" height="48" rx="4" width="99"/><path d="m29.9883 24.7246c0 2.3503-.6706 4.1504-2.0117 5.4004-1.3347 1.25-3.265 1.875-5.7911 1.875h-4.0429v-14.2773h4.4824c2.3307 0 4.1406.6152 5.4297 1.8457 1.2891 1.2304 1.9336 2.9492 1.9336 5.1562zm-3.1445.0781c0-3.0664-1.3542-4.5996-4.0626-4.5996h-1.6113v9.2969h1.2989c2.9166 0 4.375-1.5658 4.375-4.6973zm10.6406-1.8066c-.6315 0-1.1263.2018-1.4844.6055-.3581.3971-.5632.9635-.6152 1.6992h4.1797c-.0131-.7357-.2051-1.3021-.5762-1.6992-.3711-.4037-.8724-.6055-1.5039-.6055zm.4199 9.1992c-1.7578 0-3.1315-.485-4.1211-1.4551-.9896-.97-1.4844-2.3437-1.4844-4.1211 0-1.8294.4558-3.2421 1.3672-4.2382.918-1.0026 2.1843-1.5039 3.7988-1.5039 1.543 0 2.7442.4394 3.6036 1.3183.8593.8789 1.289 2.0931 1.289 3.6426v1.4453h-7.041c.0326.8464.2832 1.5072.752 1.9824.4687.4753 1.1263.7129 1.9726.7129.6576 0 1.2793-.0683 1.8652-.2051.586-.1367 1.198-.3548 1.836-.6543v2.3047c-.5208.2604-1.0775.4525-1.6699.5762-.5925.1302-1.3151.1953-2.168.1953zm10.1035-.1953h-2.9785v-15.1953h2.9785zm7.9063-9.0039c-.6315 0-1.1263.2018-1.4844.6055-.3581.3971-.5632.9635-.6152 1.6992h4.1796c-.013-.7357-.205-1.3021-.5761-1.6992-.3711-.4037-.8724-.6055-1.5039-.6055zm.4199 9.1992c-1.7578 0-3.1315-.485-4.1211-1.4551-.9896-.97-1.4844-2.3437-1.4844-4.1211 0-1.8294.4557-3.2421 1.3672-4.2382.918-1.0026 2.1842-1.5039 3.7988-1.5039 1.543 0 2.7442.4394 3.6035 1.3183.8594.8789 1.2891 2.0931 1.2891 3.6426v1.4453h-7.041c.0325.8464.2832 1.5072.7519 1.9824.4688.4753 1.1263.7129 1.9727.7129.6576 0 1.2793-.0683 1.8652-.2051.586-.1367 1.198-.3548 1.836-.6543v2.3047c-.5209.2604-1.0775.4525-1.6699.5762-.5925.1302-1.3152.1953-2.168.1953zm11.7246-2.373c.5208 0 1.1458-.114 1.875-.3418v2.2168c-.7422.332-1.6537.498-2.7344.498-1.1914 0-2.0605-.2995-2.6074-.8984-.5404-.6055-.8106-1.5104-.8106-2.7149v-5.2636h-1.4257v-1.2598l1.6406-.9961.8594-2.3047h1.9043v2.3242h3.0566v2.2364h-3.0566v5.2636c0 .4232.1172.7357.3515.9375.2409.2019.5567.3028.9473.3028zm8.8633-6.8262c-.6315 0-1.1263.2018-1.4844.6055-.3581.3971-.5632.9635-.6152 1.6992h4.1797c-.0131-.7357-.2051-1.3021-.5762-1.6992-.3711-.4037-.8724-.6055-1.5039-.6055zm.4199 9.1992c-1.7578 0-3.1315-.485-4.1211-1.4551-.9896-.97-1.4844-2.3437-1.4844-4.1211 0-1.8294.4558-3.2421 1.3672-4.2382.918-1.0026 2.1843-1.5039 3.7988-1.5039 1.543 0 2.7442.4394 3.6036 1.3183.8593.8789 1.289 2.0931 1.289 3.6426v1.4453h-7.041c.0326.8464.2832 1.5072.752 1.9824.4687.4753 1.1263.7129 1.9726.7129.6576 0 1.2793-.0683 1.8653-.2051.5859-.1367 1.1979-.3548 1.8359-.6543v2.3047c-.5208.2604-1.0775.4525-1.6699.5762-.5925.1302-1.3151.1953-2.168.1953z" fill="#fff"/></svg>

<svg width="99" height="48" viewBox="0 0 99 48" fill="none" xmlns="http://www.w3.org/2000/svg"><rect width="99" height="48" rx="4" fill="#DA212C"/><path d="M29.9883 24.7246C29.9883 27.0749 29.3177 28.875 27.9766 30.125C26.6419 31.375 24.7116 32 22.1855 32H18.1426V17.7227H22.625C24.9557 17.7227 26.7656 18.3379 28.0547 19.5684C29.3438 20.7988 29.9883 22.5176 29.9883 24.7246ZM26.8438 24.8027C26.8438 21.7363 25.4896 20.2031 22.7812 20.2031H21.1699V29.5H22.4688C25.3854 29.5 26.8438 27.9342 26.8438 24.8027ZM37.4844 22.9961C36.8529 22.9961 36.3581 23.1979 36 23.6016C35.6419 23.9987 35.4368 24.5651 35.3848 25.3008H39.5645C39.5514 24.5651 39.3594 23.9987 38.9883 23.6016C38.6172 23.1979 38.1159 22.9961 37.4844 22.9961ZM37.9043 32.1953C36.1465 32.1953 34.7728 31.7103 33.7832 30.7402C32.7936 29.7702 32.2988 28.3965 32.2988 26.6191C32.2988 24.7897 32.7546 23.377 33.666 22.3809C34.584 21.3783 35.8503 20.877 37.4648 20.877C39.0078 20.877 40.209 21.3164 41.0684 22.1953C41.9277 23.0742 42.3574 24.2884 42.3574 25.8379V27.2832H35.3164C35.349 28.1296 35.5996 28.7904 36.0684 29.2656C36.5371 29.7409 37.1947 29.9785 38.041 29.9785C38.6986 29.9785 39.3203 29.9102 39.9062 29.7734C40.4922 29.6367 41.1042 29.4186 41.7422 29.1191V31.4238C41.2214 31.6842 40.6647 31.8763 40.0723 32C39.4798 32.1302 38.7572 32.1953 37.9043 32.1953ZM48.0078 32H45.0293V16.8047H48.0078V32ZM55.9141 22.9961C55.2826 22.9961 54.7878 23.1979 54.4297 23.6016C54.0716 23.9987 53.8665 24.5651 53.8145 25.3008H57.9941C57.9811 24.5651 57.7891 23.9987 57.418 23.6016C57.0469 23.1979 56.5456 22.9961 55.9141 22.9961ZM56.334 32.1953C54.5762 32.1953 53.2025 31.7103 52.2129 30.7402C51.2233 29.7702 50.7285 28.3965 50.7285 26.6191C50.7285 24.7897 51.1842 23.377 52.0957 22.3809C53.0137 21.3783 54.2799 20.877 55.8945 20.877C57.4375 20.877 58.6387 21.3164 59.498 22.1953C60.3574 23.0742 60.7871 24.2884 60.7871 25.8379V27.2832H53.7461C53.7786 28.1296 54.0293 28.7904 54.498 29.2656C54.9668 29.7409 55.6243 29.9785 56.4707 29.9785C57.1283 29.9785 57.75 29.9102 58.3359 29.7734C58.9219 29.6367 59.5339 29.4186 60.1719 29.1191V31.4238C59.651 31.6842 59.0944 31.8763 58.502 32C57.9095 32.1302 57.1868 32.1953 56.334 32.1953ZM68.0586 29.8223C68.5794 29.8223 69.2044 29.7083 69.9336 29.4805V31.6973C69.1914 32.0293 68.2799 32.1953 67.1992 32.1953C66.0078 32.1953 65.1387 31.8958 64.5918 31.2969C64.0514 30.6914 63.7812 29.7865 63.7812 28.582V23.3184H62.3555V22.0586L63.9961 21.0625L64.8555 18.7578H66.7598V21.082H69.8164V23.3184H66.7598V28.582C66.7598 29.0052 66.877 29.3177 67.1113 29.5195C67.3522 29.7214 67.668 29.8223 68.0586 29.8223ZM76.9219 22.9961C76.2904 22.9961 75.7956 23.1979 75.4375 23.6016C75.0794 23.9987 74.8743 24.5651 74.8223 25.3008H79.002C78.9889 24.5651 78.7969 23.9987 78.4258 23.6016C78.0547 23.1979 77.5534 22.9961 76.9219 22.9961ZM77.3418 32.1953C75.584 32.1953 74.2103 31.7103 73.2207 30.7402C72.2311 29.7702 71.7363 28.3965 71.7363 26.6191C71.7363 24.7897 72.1921 23.377 73.1035 22.3809C74.0215 21.3783 75.2878 20.877 76.9023 20.877C78.4453 20.877 79.6465 21.3164 80.5059 22.1953C81.3652 23.0742 81.7949 24.2884 81.7949 25.8379V27.2832H74.7539C74.7865 28.1296 75.0371 28.7904 75.5059 29.2656C75.9746 29.7409 76.6322 29.9785 77.4785 29.9785C78.1361 29.9785 78.7578 29.9102 79.3438 29.7734C79.9297 29.6367 80.5417 29.4186 81.1797 29.1191V31.4238C80.6589 31.6842 80.1022 31.8763 79.5098 32C78.9173 32.1302 78.1947 32.1953 77.3418 32.1953Z" fill="#fff"/></svg>
